X:108
T:The gravel walks
R:Reel
O:Ireland
B:Fiddler's Fakebook
B:Pubscouts
D:Fiddlesticks CD- exact version...
S:Pubscouts
Z:Transcription, chords:Mike Long
M:C|
L:1/8
K:G
"Am"A2eA BAeA|"Am"A2eA "G"BAGB|"Am"A2eA Bdef|"C"gedc "G"BAGB:|\
"Am"A2aA gAfA|"Am"A2eA "G"BAGB|
"Am"A2aA gAef|"C"gfge "G"dBGB|\
"Am"A2aA gAfA|"Am"A2eA "G"BAGB|"Am"ABcd efga|
"C"gedc "G"BAGB\
|:"Am"cAAG A2AB|"Am"cA~A2 "G"BGBd|"Am"cAAG A2ef|"C"gfge "G"dBGB:|
|:"C"c2gc acgc|"C"c2gc "G"BAGB|"C"c2gc acga|"C"gedc "G"BAGB|\
"C"c2gc acgc|
"C"c2gc "G"BAGB|[1 "Am"ABcd egfa|"C"gedc "G"BAGB:|\
[2 "Am"Aa~a2 agea|"Am"afge "G"dBGB|]
